src/pos-icons/squeegee.svg

<svg height="24" viewBox="0 0 24 24" width="24" xmlns="http://www.w3.org/2000/svg"><path d="m22 2v3h-20v-3zm-20 6h5l2 2h1v10a2 2 0 0 0 2 2 2 2 0 0 0 2-2v-10h1l2-2h5v-2h-20z"/></svg>

<?xml version="1.0" encoding="UTF-8"?><!DOCTYPE svg PUBLIC "-//W3C//DTD SVG 1.1//EN" "http://www.w3.org/Graphics/SVG/1.1/DTD/svg11.dtd"><svg xmlns="http://www.w3.org/2000/svg" xmlns:xlink="http://www.w3.org/1999/xlink" version="1.1" id="mdi-squeegee" width="24" height="24" viewBox="0 0 24 24"><path d="M22,2V5H2V2H22M2,8H7L9,10H10V20A2,2 0 0,0 12,22A2,2 0 0,0 14,20V10H15L17,8H22V6H2V8Z" /></svg>
